spa-outline.svg

<svg fill="currentColor" viewBox="0 0 24 24"><path d="M15.5 9.63a14.2 14.2 0 0 0-3.5 2.63 13.7 13.7 0 0 0-3.5-2.63C8.74 6.86 9.92 4.14 12.06 2c2.12 2.12 3.25 4.84 3.44 7.63M12 15.45C14.15 12.17 17.82 10 22 10c0 10-9.32 11.88-10 12-.68-.11-10-2-10-12 4.18 0 7.85 2.17 10 5.45m.05-10.26c-.66 1.04-1.12 2.19-1.37 3.39l1.32.97 1.35-.98c-.23-1.2-.67-2.35-1.3-3.38M12 19.97s6-.97 7.74-7.72C14 14 12 19.1 12 19.1S9 13 4.26 12.26C6 19 12 19.97 12 19.97"/></svg>

<svg  viewBox="0 0 24 24" fill="currentColor"><path  d="M15.5,9.63C14.21,10.32 13.03,11.2 12,12.26C10.97,11.19 9.79,10.31 8.5,9.63C8.74,6.86 9.92,4.14 12.06,2C14.18,4.12 15.31,6.84 15.5,9.63M12,15.45C14.15,12.17 17.82,10 22,10C22,20 12.68,21.88 12,22C11.32,21.89 2,20 2,10C6.18,10 9.85,12.17 12,15.45M12.05,5.19C11.39,6.23 10.93,7.38 10.68,8.58L12,9.55L13.35,8.57C13.12,7.37 12.68,6.22 12.05,5.19M12,19.97C12,19.97 18,19 19.74,12.25C14,14 12,19.1 12,19.1C12,19.1 9,13 4.26,12.26C6,19 12,19.97 12,19.97Z"/></svg>
